X:51
T:Sycopated Scottish we danced in St Chartier 2002
Z:Dausenkunz
M:4/4
L:1/8
Q:1/4=170
K:Em
A- | ABcA B2 B A- | ABcA B2 B A- | ABcd e2 dc |1 Bc B2 A3 :|2 Bc B2 A4 |
|: gege g2 e f- | fdfd f2 d e- | efg a2 g f2 | efg a-a4 |
agf e2 c3 | gfe d2 B3 | ABcd e2 dc | Bc B2 A4 :|
